icon-themes/breeze_svg/cmd/lc_grafluminance.svg

<svg viewBox="0 0 24 24" xmlns="http://www.w3.org/2000/svg"><path d="m11.5 4v1.8125h1v-1.8125zm-4.8125 1.96875-.71875.71875 1.28125 1.3125.71875-.75zm10.625 0-1.28125 1.28125.71875.75 1.28125-1.3125zm-5.3125 1.03125c-2.761424 0-5 2.2386-5 5s2.238576 5 5 5 5-2.2386 5-5-2.238576-5-5-5zm0 1v8c-2.209139 0-4-1.7909-4-4s1.790861-4 4-4zm-8 3.5v1h1.8125v-1zm14.1875 0v1h1.8125v-1zm-10.9375 4.53125-1.28125 1.28125.71875.71875 1.28125-1.28125zm9.5 0-.71875.71875 1.28125 1.28125.71875-.71875zm-5.25 2.15625v1.8125h1v-1.8125z" fill="#4d4d4d"/></svg>

<svg xmlns="http://www.w3.org/2000/svg" viewBox="0 0 24 24">
 <path 
     style="fill:#4d4d4d" 
     d="M 11.5 4 L 11.5 5.8125 L 12.5 5.8125 L 12.5 4 L 11.5 4 z M 6.6875 5.96875 L 5.96875 6.6875 L 7.25 8 L 7.96875 7.25 L 6.6875 5.96875 z M 17.3125 5.96875 L 16.03125 7.25 L 16.75 8 L 18.03125 6.6875 L 17.3125 5.96875 z M 12 7 C 9.238576 7 7 9.2386 7 12 C 7 14.7614 9.238576 17 12 17 C 14.761424 17 17 14.7614 17 12 C 17 9.2386 14.761424 7 12 7 z M 12 8 L 12 16 C 9.790861 16 8 14.2091 8 12 C 8 9.7909 9.790861 8 12 8 z M 4 11.5 L 4 12.5 L 5.8125 12.5 L 5.8125 11.5 L 4 11.5 z M 18.1875 11.5 L 18.1875 12.5 L 20 12.5 L 20 11.5 L 18.1875 11.5 z M 7.25 16.03125 L 5.96875 17.3125 L 6.6875 18.03125 L 7.96875 16.75 L 7.25 16.03125 z M 16.75 16.03125 L 16.03125 16.75 L 17.3125 18.03125 L 18.03125 17.3125 L 16.75 16.03125 z M 11.5 18.1875 L 11.5 20 L 12.5 20 L 12.5 18.1875 L 11.5 18.1875 z "
     />
 </svg>
